X: 72
M: C|
L: 1/8
K: F
f/g/ |\
affc Accf | affd eggb |\
affc Accf | defg aff \
f/g/ |
affc Accf | affd eggb |\
afge fdcA | BGcB AFF H|]

